X:1
T:Title
%%score { ( 1 3 ) | ( 2 4 ) }
L:1/8
M:4/4
K:Eb
V:1 treble nm="Grand Piano"
V:3 treble 
V:2 bass 
V:4 bass 
V:1
 z4 z2[Q:1/4=100] [G,B,]2 | [B,EG]2 [B,EG]2 [B,=EA]3 [B,EG] | [B,CG]3 [A,CF] [A,CF]2 [B,DG]2 | %3
 A2 B2 c2 d2 |[M:3/4] c3 =A B2 |[M:1/4] [EGB]2 |[M:4/4] [EGe]2 [Ge]2 [Gd]2 [CGc]2 | %7
 [CGB]3 [_DGB] [CFA]2 [CF]2 | [EB]6 [DAB]2 |[M:3/4] [EGB]6 |] %10
V:2
 z4 z2 E,2 | E,2 E,2 C,3 C, | =E,3 F, F,2 B,,2 | B,2[K:treble] [B,DG]2 [A,DF]2 [A,B,F]2 | %4
[M:3/4] [=A,E_G]3 [CEG] [B,E=G]2 |[M:1/4][K:bass] E,2 |[M:4/4] C,2 [C,C]2 [D,=B,]2 E,2 | %7
 =E,3 E, F,2 A,2 | z4 C2 F,2 |[M:3/4] E,6 |] %10
V:3
 x8 | x8 | x8 | x8 |[M:3/4] x6 |[M:1/4] x2 |[M:4/4] x8 | x8 | B,4 z4 |[M:3/4] x6 |] %10
V:4
 x8 | x8 | x8 | x2[K:treble] x6 |[M:3/4] x6 |[M:1/4][K:bass] x2 |[M:4/4] x8 | x8 | G,6 z2 | %9
[M:3/4] x6 |] %10

